usr/share/icons/elementary-xfce/apps/32/preferences-desktop-accessibility.svg

<?xml version="1.0" encoding="UTF-8" standalone="no"?>
<!-- Created with Inkscape (http://www.inkscape.org/) -->

<svg
   xmlns:dc="http://purl.org/dc/elements/1.1/"
   xmlns:cc="http://creativecommons.org/ns#"
   xmlns:rdf="http://www.w3.org/1999/02/22-rdf-syntax-ns#"
   xmlns:svg="http://www.w3.org/2000/svg"
   xmlns="http://www.w3.org/2000/svg"
   xmlns:xlink="http://www.w3.org/1999/xlink"
   xmlns:sodipodi="http://sodipodi.sourceforge.net/DTD/sodipodi-0.dtd"
   xmlns:inkscape="http://www.inkscape.org/namespaces/inkscape"
   width="32px"
   height="32px"
   id="svg4248"
   version="1.1"
   inkscape:version="0.48.2 r9819"
   sodipodi:docname="preferences-desktop-accessibility.svg">
  <defs
     id="defs4250">
    <linearGradient
       inkscape:collect="always"
       xlink:href="#linearGradient4072"
       id="linearGradient4161"
       gradientUnits="userSpaceOnUse"
       gradientTransform="matrix(0.238878,0,0,0.22625678,24.576952,16.381774)"
       x1="69.311714"
       y1="-15.790401"
       x2="69.311714"
       y2="33.986996" />
    <linearGradient
       id="linearGradient4072"
       inkscape:collect="always">
      <stop
         id="stop4074"
         offset="0"
         style="stop-color:#000000;stop-opacity:1;" />
      <stop
         id="stop4076"
         offset="1"
         style="stop-color:#000000;stop-opacity:0;" />
    </linearGradient>
    <linearGradient
       id="linearGradient3707-319-631-407-324-3-8">
      <stop
         id="stop3760-7-3"
         style="stop-color:#185f9a;stop-opacity:1;"
         offset="0" />
      <stop
         id="stop3762-8-4"
         style="stop-color:#599ec9;stop-opacity:1;"
         offset="1" />
    </linearGradient>
    <linearGradient
       inkscape:collect="always"
       xlink:href="#linearGradient4011"
       id="linearGradient3096"
       gradientUnits="userSpaceOnUse"
       gradientTransform="matrix(0.72972967,0,0,0.72972967,-36.346078,-2.5039298)"
       x1="71.204407"
       y1="6.2375584"
       x2="71.204407"
       y2="44.340794" />
    <linearGradient
       id="linearGradient4011">
      <stop
         id="stop4013"
         style="stop-color:#ffffff;stop-opacity:1;"
         offset="0" />
      <stop
         offset="0.507761"
         style="stop-color:#ffffff;stop-opacity:0.23529412;"
         id="stop4015" />
      <stop
         id="stop4017"
         style="stop-color:#ffffff;stop-opacity:0.15686275;"
         offset="0.83456558" />
      <stop
         id="stop4019"
         style="stop-color:#ffffff;stop-opacity:0.39215687;"
         offset="1" />
    </linearGradient>
    <radialGradient
       inkscape:collect="always"
       xlink:href="#linearGradient2867-449-88-871-390-598-476-591-434-148-57-177-3-8"
       id="radialGradient3099"
       gradientUnits="userSpaceOnUse"
       gradientTransform="matrix(4.5367027e-8,1.7632481,-1.8653063,0,31.761486,-11.251052)"
       cx="6.1596723"
       cy="8.4497671"
       fx="6.1596723"
       fy="8.4497671"
       r="19.99999" />
    <linearGradient
       id="linearGradient2867-449-88-871-390-598-476-591-434-148-57-177-3-8">
      <stop
         id="stop3750-8-9"
         style="stop-color:#90dbec;stop-opacity:1;"
         offset="0" />
      <stop
         id="stop3752-3-2"
         style="stop-color:#55c1ec;stop-opacity:1;"
         offset="0.26238" />
      <stop
         id="stop3754-7-2"
         style="stop-color:#3689e6;stop-opacity:1;"
         offset="0.704952" />
      <stop
         id="stop3756-9-3"
         style="stop-color:#2b63a0;stop-opacity:1;"
         offset="1" />
    </linearGradient>
    <linearGradient
       inkscape:collect="always"
       xlink:href="#linearGradient3707-319-631-407-324-3-8"
       id="linearGradient3101"
       gradientUnits="userSpaceOnUse"
       gradientTransform="matrix(0.74365873,0,0,0.74365873,-1.847808,-1.8478104)"
       x1="24"
       y1="44"
       x2="24"
       y2="3.8990016" />
    <linearGradient
       id="linearGradient8838">
      <stop
         id="stop8840"
         style="stop-color:#000000;stop-opacity:1"
         offset="0" />
      <stop
         id="stop8842"
         style="stop-color:#000000;stop-opacity:0"
         offset="1" />
    </linearGradient>
    <radialGradient
       r="10.625"
       fy="4.625"
       fx="62.625"
       cy="4.625"
       cx="62.625"
       gradientTransform="matrix(1.5058824,0,0,0.37647,-78.305888,26.258824)"
       gradientUnits="userSpaceOnUse"
       id="radialGradient4246"
       xlink:href="#linearGradient8838"
       inkscape:collect="always" />
    <linearGradient
       inkscape:collect="always"
       xlink:href="#linearGradient3707-319-631-407-324-3-8-7"
       id="linearGradient4060-4"
       x1="15.550736"
       y1="30.895977"
       x2="15.550736"
       y2="0.23165128"
       gradientUnits="userSpaceOnUse"
       gradientTransform="translate(24,0)" />
    <linearGradient
       id="linearGradient3707-319-631-407-324-3-8-7">
      <stop
         id="stop3760-7-3-6"
         style="stop-color:#185f9a;stop-opacity:1;"
         offset="0" />
      <stop
         id="stop3762-8-4-5"
         style="stop-color:#599ec9;stop-opacity:1;"
         offset="1" />
    </linearGradient>
    <linearGradient
       id="linearGradient4062-2"
       inkscape:collect="always">
      <stop
         id="stop4064-5"
         offset="0"
         style="stop-color:#000000;stop-opacity:1;" />
      <stop
         id="stop4066-4"
         offset="1"
         style="stop-color:#000000;stop-opacity:0;" />
    </linearGradient>
    <linearGradient
       inkscape:collect="always"
       xlink:href="#linearGradient4062-2"
       id="linearGradient3897"
       gradientUnits="userSpaceOnUse"
       gradientTransform="matrix(0.21412596,0,0,0.22795278,26.756506,15.018422)"
       x1="-40.587261"
       y1="-35.402748"
       x2="-39.8311"
       y2="-15.912916" />
    <linearGradient
       inkscape:collect="always"
       xlink:href="#linearGradient4062-2"
       id="linearGradient3899"
       gradientUnits="userSpaceOnUse"
       gradientTransform="matrix(0.21412596,0,0,0.22795278,26.756506,15.018422)"
       x1="-50.417347"
       y1="-14.804217"
       x2="-50.417347"
       y2="48.049694" />
  </defs>
  <sodipodi:namedview
     id="base"
     pagecolor="#ffffff"
     bordercolor="#666666"
     borderopacity="1.0"
     inkscape:pageopacity="0.0"
     inkscape:pageshadow="2"
     inkscape:zoom="12.352272"
     inkscape:cx="32.958758"
     inkscape:cy="18.289803"
     inkscape:current-layer="layer1"
     showgrid="true"
     inkscape:grid-bbox="true"
     inkscape:document-units="px"
     inkscape:window-width="1280"
     inkscape:window-height="753"
     inkscape:window-x="0"
     inkscape:window-y="24"
     inkscape:window-maximized="1" />
  <metadata
     id="metadata4253">
    <rdf:RDF>
      <cc:Work
         rdf:about="">
        <dc:format>image/svg+xml</dc:format>
        <dc:type
           rdf:resource="http://purl.org/dc/dcmitype/StillImage" />
        <dc:title></dc:title>
      </cc:Work>
    </rdf:RDF>
  </metadata>
  <g
     id="layer1"
     inkscape:label="Layer 1"
     inkscape:groupmode="layer">
    <path
       inkscape:connector-curvature="0"
       style="opacity:0.3;fill:url(#radialGradient4246);fill-opacity:1;fill-rule:evenodd;stroke:none;stroke-width:0.99999988;marker:none;visibility:visible;display:inline;overflow:visible"
       id="path8836"
       d="m 31.999998,28 c 0,2.209139 -7.163445,4 -16.000001,4 C 7.1634417,32 -3.2e-6,30.209139 -3.2e-6,28 c 0,-2.209139 7.1634449,-4 16.0000002,-4 8.836556,0 16.000001,1.790861 16.000001,4 l 0,0 z" />
    <path
       inkscape:connector-curvature="0"
       style="color:#000000;fill:url(#radialGradient3099);fill-opacity:1;fill-rule:nonzero;stroke:url(#linearGradient3101);stroke-width:1;stroke-linecap:round;stroke-linejoin:round;stroke-miterlimit:4;stroke-opacity:1;stroke-dasharray:none;stroke-dashoffset:0;marker:none;visibility:visible;display:inline;overflow:visible;enable-background:accumulate"
       id="path2555-7"
       d="M 16.000001,1.499999 C 7.999402,1.499999 1.5,7.9993981 1.5,15.999999 1.5,24.0006 7.999402,30.500002 16.000001,30.5 24.000598,30.5 30.500007,24.0006 30.5,15.999999 c 0,-8.0006009 -6.499402,-14.5 -14.499999,-14.5 z" />
    <path
       inkscape:connector-curvature="0"
       style="opacity:0.5;color:#000000;fill:none;stroke:url(#linearGradient3096);stroke-width:0.99999994;stroke-linecap:round;stroke-linejoin:round;stroke-miterlimit:4;stroke-opacity:1;stroke-dasharray:none;stroke-dashoffset:0;marker:none;visibility:visible;display:inline;overflow:visible;enable-background:accumulate"
       id="path8655-6"
       d="M 29.5,15.999522 C 29.5,23.455606 23.455399,29.5 16.000171,29.5 8.5442604,29.5 2.5,23.455537 2.5,15.999522 2.5,8.5437826 8.5442604,2.5000017 16.000171,2.5000017 23.455399,2.5000017 29.5,8.5437826 29.5,15.999522 l 0,0 z" />
    <path
       inkscape:connector-curvature="0"
       style="fill:url(#linearGradient4060-4);fill-opacity:1;stroke:none;color:#000000;fill-rule:nonzero;marker:none;visibility:visible;display:inline;overflow:visible;enable-background:accumulate"
       id="path2520"
       d="m 18.299799,8.1756489 c 0,1.2009592 -0.983764,2.1756501 -2.195901,2.1756501 -1.212139,0 -2.195902,-0.9746909 -2.195902,-2.1756501 C 13.907996,6.9746912 14.891759,6 16.103898,6 c 1.212137,0 2.195901,0.9746912 2.195901,2.1756489 z m 5.480666,2.3134221 c -0.101564,0.0163 -0.197533,0.05599 -0.279785,0.11578 l -7.500909,1.158902 -7.4605106,-1.174885 c -0.1928539,-0.138585 -0.4639981,-0.180084 -0.6794902,-0.07719 -0.2154931,0.102889 -0.3567625,0.346754 -0.3597337,0.578808 -0.00272,0.232086 0.1469205,0.432236 0.3597337,0.540228 l 5.8460378,1.837425 -0.03998,4.218107 -2.062831,6.317365 c -0.198676,0.287667 -0.138122,0.657112 0.159882,0.848893 0.298017,0.191809 0.720631,0.133367 0.919327,-0.154332 l 3.328993,-6.818979 3.266154,6.807194 c 0.17661,0.298373 0.570296,0.402021 0.87935,0.231529 0.309054,-0.170489 0.416427,-0.550548 0.239823,-0.848923 l -2.02454,-6.344543 -0.07993,-3.971062 5.928066,-2.145275 c 0.239517,-0.16215 0.343571,-0.469126 0.239831,-0.733145 -0.103749,-0.264048 -0.388859,-0.417886 -0.679506,-0.385892 l 2e-5,0 z" />
    <path
       inkscape:connector-curvature="0"
       style="fill:#ffffff;fill-opacity:1;stroke:none"
       id="path6668"
       d="m 18.299799,9.1756491 c 0,1.2009589 -0.983764,2.1756499 -2.195901,2.1756499 -1.212139,0 -2.195902,-0.974691 -2.195902,-2.1756499 0,-1.2009577 0.983763,-2.1756489 2.195902,-2.1756489 1.212137,0 2.195901,0.9746912 2.195901,2.1756489 z m 5.480666,2.3134219 c -0.101564,0.0163 -0.197533,0.05599 -0.279785,0.11578 l -7.500909,1.158902 -7.4605106,-1.174885 c -0.1928539,-0.138585 -0.4639981,-0.180084 -0.6794902,-0.07719 -0.2154931,0.102889 -0.3567625,0.346754 -0.3597337,0.578808 -0.00272,0.232086 0.1469205,0.432236 0.3597337,0.540228 l 5.8460378,1.837425 -0.03998,4.218107 -2.062831,6.317365 c -0.198676,0.287667 -0.138122,0.657112 0.159882,0.848893 0.298017,0.191809 0.720631,0.133367 0.919327,-0.154332 l 3.328993,-6.818979 3.266154,6.807194 c 0.17661,0.298373 0.570296,0.402021 0.87935,0.231529 0.309054,-0.170489 0.416427,-0.550548 0.239823,-0.848923 l -2.02454,-6.344543 -0.07993,-3.971062 5.928066,-2.145275 c 0.239517,-0.16215 0.343571,-0.469126 0.239831,-0.733145 -0.103749,-0.264048 -0.388859,-0.417886 -0.679506,-0.385892 l 2e-5,0 z" />
    <path
       style="opacity:0.04;color:#000000;fill:none;stroke:url(#linearGradient3897);stroke-width:0.99999976000000002;stroke-linecap:butt;stroke-linejoin:miter;stroke-miterlimit:4;stroke-opacity:1;stroke-dasharray:none;stroke-dashoffset:0;marker:none;visibility:visible;display:inline;overflow:visible;enable-background:accumulate"
       d="m 16.09375,7.4375 c -1.279782,-0.066831 -2.192692,1.4851884 -1.543578,2.579498 0.62417,1.250272 2.678296,1.141168 3.185768,-0.1538242 C 18.253181,8.7398954 17.313755,7.4001848 16.09375,7.4375 z"
       id="path3895" />
    <path
       style="opacity:0.04;color:#000000;fill:none;stroke:url(#linearGradient3899);stroke-width:0.99999976000000002;stroke-linecap:butt;stroke-linejoin:miter;stroke-miterlimit:4;stroke-opacity:1;stroke-dasharray:none;stroke-dashoffset:0;marker:none;visibility:visible;display:inline;overflow:visible;enable-background:accumulate"
       d="m 8.0625,11.875 c -0.3616796,0.459549 0.4545355,0.462701 0.7350802,0.605458 1.7188378,0.548502 3.4516528,1.062904 5.1617678,1.632693 0.358694,0.278096 0.129315,0.792558 0.18473,1.177226 -0.02727,1.159393 -0.01436,2.323244 -0.0664,3.479891 -0.718406,2.153086 -1.390452,4.325699 -2.132277,6.468517 -0.138839,0.577885 0.63724,0.130746 0.622881,-0.263176 1.037337,-2.117795 2.050188,-4.249775 3.102765,-6.35874 0.245907,-0.319407 0.729723,-0.103158 0.793432,0.25555 1.063924,2.198777 2.127849,4.397554 3.191773,6.596331 0.503148,0.320727 0.376901,-0.406434 0.21846,-0.672539 -0.642966,-2.026451 -1.307891,-4.047907 -1.93721,-6.077461 -0.01908,-1.364119 -0.0907,-2.732206 -0.07731,-4.093883 0.16522,-0.402873 0.698895,-0.37613 1.037058,-0.561933 1.690502,-0.614728 3.381004,-1.229456 5.071506,-1.844184 0.240736,-0.525701 -0.527724,-0.145918 -0.812311,-0.156149 -2.392979,0.36298 -4.783873,0.749383 -7.178154,1.097741 -2.543822,-0.39566 -5.09293,-0.773683 -7.6322579,-1.189795 C 8.2518287,11.934983 8.1727398,11.836569 8.0625,11.875 z"
       id="path3886" />
  </g>
</svg>

<?xml version="1.0" encoding="UTF-8" standalone="no"?>
<!-- Created with Inkscape (http://www.inkscape.org/) -->
<svg
   xmlns:svg="http://www.w3.org/2000/svg"
   xmlns="http://www.w3.org/2000/svg"
   xmlns:xlink="http://www.w3.org/1999/xlink"
   version="1.0"
   width="32"
   height="32"
   id="svg2522">
  <defs
     id="defs2524">
    <linearGradient
       id="linearGradient8838">
      <stop
         id="stop8840"
         style="stop-color:#000000;stop-opacity:1"
         offset="0" />
      <stop
         id="stop8842"
         style="stop-color:#000000;stop-opacity:0"
         offset="1" />
    </linearGradient>
    <radialGradient
       cx="62.625"
       cy="4.625"
       r="10.625"
       fx="62.625"
       fy="4.625"
       id="radialGradient2502"
       xlink:href="#linearGradient8838"
       gradientUnits="userSpaceOnUse"
       gradientTransform="matrix(1.5058824,0,0,0.37647,-78.305888,26.258824)" />
    <linearGradient
       id="linearGradient2490-182-124">
      <stop
         id="stop2788"
         style="stop-color:#1f4b6a;stop-opacity:1"
         offset="0" />
      <stop
         id="stop2790"
         style="stop-color:#4083c2;stop-opacity:1"
         offset="1" />
    </linearGradient>
    <linearGradient
       x1="18.379412"
       y1="44.980297"
       x2="18.379412"
       y2="3.0816143"
       id="linearGradient2499"
       xlink:href="#linearGradient2490-182-124"
       gradientUnits="userSpaceOnUse"
       gradientTransform="matrix(0.7126612,0,0,0.7126613,-1.1038706,-1.1038704)" />
    <linearGradient
       id="linearGradient3242-187-536">
      <stop
         id="stop2778"
         style="stop-color:#8badea;stop-opacity:1"
         offset="0" />
      <stop
         id="stop2780"
         style="stop-color:#6396cd;stop-opacity:1"
         offset="0.26238" />
      <stop
         id="stop2782"
         style="stop-color:#3b7caf;stop-opacity:1"
         offset="0.66093999" />
      <stop
         id="stop2784"
         style="stop-color:#194c70;stop-opacity:1"
         offset="1" />
    </linearGradient>
    <radialGradient
       cx="23.895569"
       cy="3.9900031"
       r="20.397499"
       fx="23.895569"
       fy="3.9900031"
       id="radialGradient2497"
       xlink:href="#linearGradient3242-187-536"
       gradientUnits="userSpaceOnUse"
       gradientTransform="matrix(0,1.7008781,-2.245129,0,24.958071,-40.236051)" />
    <linearGradient
       id="linearGradient4873">
      <stop
         id="stop4875"
         style="stop-color:#ffffff;stop-opacity:1"
         offset="0" />
      <stop
         id="stop4877"
         style="stop-color:#ffffff;stop-opacity:0"
         offset="1" />
    </linearGradient>
    <linearGradient
       x1="63.397362"
       y1="-12.489107"
       x2="63.397362"
       y2="5.4675598"
       id="linearGradient2494"
       xlink:href="#linearGradient4873"
       gradientUnits="userSpaceOnUse"
       gradientTransform="matrix(1.5436509,0,0,1.5436158,-80.015712,21.419381)" />
  </defs>
  <g
     id="layer1">
    <path
       d="M 31.999998,28 C 31.999998,30.209139 24.836553,32 15.999997,32 C 7.1634417,32 -3.2e-06,30.209139 -3.2e-06,28 C -3.2e-06,25.790861 7.1634417,24 15.999997,24 C 24.836553,24 31.999998,25.790861 31.999998,28 L 31.999998,28 z"
       id="path8836"
       style="opacity:0.3;fill:url(#radialGradient2502);fill-opacity:1;fill-rule:evenodd;stroke:none;stroke-width:0.99999988;stroke-linecap:butt;stroke-linejoin:round;marker:none;marker-start:none;marker-mid:none;marker-end:none;stroke-miterlimit:4;stroke-dasharray:none;stroke-dashoffset:0;stroke-opacity:1;visibility:visible;display:inline;overflow:visible" />
    <path
       d="M 16.000001,1.5017975 C 8.0003938,1.5017975 1.5017978,8.0003912 1.5017978,15.999999 C 1.5017978,23.999608 8.0003938,30.498205 16.000001,30.498202 C 23.999606,30.498202 30.49821,23.999608 30.498202,15.999999 C 30.498202,8.0003912 23.999606,1.5017975 16.000001,1.5017975 z"
       id="path2555"
       style="fill:url(#radialGradient2497);fill-opacity:1;stroke:url(#linearGradient2499);stroke-width:1.00365412;stroke-linecap:round;stroke-linejoin:round;stroke-miterlimit:4;stroke-dasharray:none;stroke-dashoffset:0;stroke-opacity:1" />
    <path
       d="M 29.5,15.999522 C 29.5,23.455607 23.455399,29.5 16.000172,29.5 C 8.5442598,29.5 2.5,23.455539 2.5,15.999522 C 2.5,8.5437822 8.5442598,2.5000011 16.000172,2.5000011 C 23.455399,2.5000011 29.5,8.5437822 29.5,15.999522 L 29.5,15.999522 z"
       id="path8655"
       style="opacity:0.4;fill:none;fill-opacity:1;fill-rule:nonzero;stroke:url(#linearGradient2494);stroke-width:1;stroke-miterlimit:4;stroke-dasharray:none;stroke-opacity:1" />
    <path
       d="M 18.299799,8.1756486 C 18.299799,9.3766078 17.316035,10.351299 16.103898,10.351299 C 14.891759,10.351299 13.907996,9.3766078 13.907996,8.1756486 C 13.907996,6.9746909 14.891759,5.9999997 16.103898,5.9999997 C 17.316035,5.9999997 18.299799,6.9746909 18.299799,8.1756486 z M 23.780465,10.489071 C 23.678901,10.505375 23.582932,10.545064 23.50068,10.604851 L 15.999771,11.763753 L 8.5392604,10.588868 C 8.3464065,10.450283 8.0752623,10.408784 7.8597702,10.511673 C 7.6442771,10.614562 7.5030077,10.858427 7.5000365,11.090481 C 7.4973158,11.322567 7.646957,11.522717 7.8597702,11.630709 L 13.705808,13.468134 L 13.665824,17.686241 L 11.602993,24.003606 C 11.404317,24.291273 11.464871,24.660718 11.762875,24.852499 C 12.060892,25.044308 12.483506,24.985866 12.682202,24.698167 L 16.011195,17.879188 L 19.277349,24.686382 C 19.453959,24.984755 19.847645,25.088403 20.156699,24.917911 C 20.465753,24.747422 20.573126,24.367363 20.396522,24.068988 L 18.371982,17.724445 L 18.292054,13.753383 L 24.22012,11.608108 C 24.459637,11.445958 24.563691,11.138982 24.459951,10.874963 C 24.356202,10.610915 24.071092,10.457077 23.780445,10.489071 L 23.780465,10.489071 z"
       id="path2520"
       style="fill:#1f4b6b;fill-opacity:1;stroke:none" />
    <path
       d="M 18.299799,9.1756488 C 18.299799,10.376608 17.316035,11.351299 16.103898,11.351299 C 14.891759,11.351299 13.907996,10.376608 13.907996,9.1756488 C 13.907996,7.9746911 14.891759,6.9999999 16.103898,6.9999999 C 17.316035,6.9999999 18.299799,7.9746911 18.299799,9.1756488 z M 23.780465,11.489071 C 23.678901,11.505375 23.582932,11.545064 23.50068,11.604851 L 15.999771,12.763753 L 8.5392604,11.588868 C 8.3464065,11.450283 8.0752623,11.408784 7.8597702,11.511673 C 7.6442771,11.614562 7.5030077,11.858427 7.5000365,12.090481 C 7.4973158,12.322567 7.646957,12.522717 7.8597702,12.630709 L 13.705808,14.468134 L 13.665824,18.686241 L 11.602993,25.003606 C 11.404317,25.291273 11.464871,25.660718 11.762875,25.852499 C 12.060892,26.044308 12.483506,25.985866 12.682202,25.698167 L 16.011195,18.879188 L 19.277349,25.686382 C 19.453959,25.984755 19.847645,26.088403 20.156699,25.917911 C 20.465753,25.747422 20.573126,25.367363 20.396522,25.068988 L 18.371982,18.724445 L 18.292054,14.753383 L 24.22012,12.608108 C 24.459637,12.445958 24.563691,12.138982 24.459951,11.874963 C 24.356202,11.610915 24.071092,11.457077 23.780445,11.489071 L 23.780465,11.489071 z"
       id="path6668"
       style="fill:#ffffff;fill-opacity:1;stroke:none" />
  </g>
</svg>
